src/wp-mark-white.svg

<svg xmlns="http://www.w3.org/2000/svg" viewBox="0 0 93 81"><path fill-rule="evenodd" fill="#fff" d="m42.2 24.27-4.28-4.32-3.28 3.32v26.65l7.47 6.62.08-.07v-32.2zm-17.25 1-5.34-5.32-3.51 3.62V50l6.48 5.62 2.37-2.7V25.27zm59.4-13.49 8.65 8v33.76L79.61 63.78c-1.3-1.63-2.9-3.02-4.81-3.57v16.15l-.16.08-4.2-3.96-8.87 8.3-.16-.08V59.82a14.37 14.37 0 0 0-7.8 5.13l-.61-.39c.53-5.98 3.44-10.4 8.41-12.1V37.31h-1.6a4.03 4.03 0 0 0-4.06 3.26h-.91A9.64 9.64 0 0 1 54.3 37c0-3.8 2.52-6.68 6.65-6.68h.46v-8.38l-2.75-2.48-2.14 2.17-1.07-1.01 8.49-8.85 7.19 6.68v7.6l2.22-2.4v-8.93h1.45v7.37l9.56-10.32zm-11 13.35-2.22 2.33v43.7l2.22 2.1V25.12zM15.1 0l.68.62c-2.51 1.23-4.57 2.77-4.57 6.08 0 5.09 4.88 3.78 4.88 11.79v3.08l8.92-9.47 9.39 9.32 8.85-9.33 8.54 8.48v28.5L36.1 63.71l-10.6-9.25-8.1 9.25-10.98-9.55v-15.1H4.27c-1.9 0-2.82 1.15-3.13 2.7H.38c-.15-.62-.38-1.7-.38-2.93 0-2 .84-7.24 6.4-7.24V19.88c0-4.55-2.97-4.78-2.97-8.7C3.43 6.77 7.55 2.7 15.11 0zm63.74 19.16L74.8 23.5v28.18c3.6.46 6.27 1.7 8.49 4.11l.07-.08V23.35l-4.5-4.2z"/></svg>

<svg viewBox="0 0 93 81" fill="none" xmlns="http://www.w3.org/2000/svg"><path fill-rule="evenodd" clip-rule="evenodd" d="M42.2 24.27L37.92 19.95L34.64 23.27V49.92L42.11 56.54L42.19 56.47V24.27H42.2ZM24.95 25.27L19.61 19.95L16.1 23.57V50L22.58 55.62L24.95 52.92V25.27ZM84.35 11.78L93 19.78V53.54L79.61 63.78C78.31 62.15 76.71 60.76 74.8 60.21V76.36L74.64 76.44L70.44 72.48L61.57 80.78L61.41 80.7V59.82C58.3115 60.6142 55.5666 62.4195 53.61 64.95L53 64.56C53.53 58.58 56.44 54.16 61.41 52.46V37.31H59.81C58.857 37.2854 57.9262 37.5994 57.1828 38.1963C56.4395 38.7932 55.9318 39.6342 55.75 40.57H54.84C54.4368 39.4246 54.2536 38.2134 54.3 37C54.3 33.2 56.82 30.32 60.95 30.32H61.41V21.94L58.66 19.46L56.52 21.63L55.45 20.62L63.94 11.77L71.13 18.45V26.05L73.35 23.65V14.72H74.8V22.09L84.36 11.77L84.35 11.78ZM73.35 25.13L71.13 27.46V71.16L73.35 73.26V25.12V25.13ZM15.1 0L15.78 0.62C13.27 1.85 11.21 3.39 11.21 6.7C11.21 11.79 16.09 10.48 16.09 18.49V21.57L25.01 12.1L34.4 21.42L43.25 12.09L51.79 20.57V49.07L36.1 63.71L25.5 54.46L17.4 63.71L6.42 54.16V39.06H4.27C2.37 39.06 1.45 40.21 1.14 41.76H0.38C0.23 41.14 0 40.06 0 38.83C0 36.83 0.84 31.59 6.4 31.59V19.88C6.4 15.33 3.43 15.1 3.43 11.18C3.43 6.77 7.55 2.7 15.11 0H15.1ZM78.84 19.16L74.8 23.5V51.68C78.4 52.14 81.07 53.38 83.29 55.79L83.36 55.71V23.35L78.86 19.15L78.84 19.16Z" fill="white"/></svg>
